X:1
T:Colin Miller's Waltz
C:Steven Roberts, Wangi Wangi NSW
L:1/8
M:3/4
K:G 
Bc|:"G"d3DD2|"Em"B3AB2|"Am"c2 E3E|"D"A4-AG|F3ED2|"D7"f2e2d2|d2A3c|"G"B4Bc|
"G"d3DD2|"Em"B3AB2|"C"c2 E3E|"Am"A4-AG|"D"F3ED2|"D7"f2e2d2|"Am"c2E3F|"G"G4 FG|
"D"A4DD|"Am"a2 g2 f2|"C"g2B2c2|"G"d4FG|"D"A4DD|"C"C4DA|"G"G6-|G4FG|
"D"A4DD|"D7"f2g2a2|"Em"g2B2cB|"D"A4AG|F3ED2|"D7"f2e2d2|"Am"c2E3F|1"G"G4Bc:|2"G"G6|]
